build/Karasa-Jaga/scalable/actions/document-export-symbolic.svg

<svg height="16" width="16" xmlns="http://www.w3.org/2000/svg"><g fill="#a3a3a3"><path d="m2 1v14h7 4v-2.21875l-1 .96875v.25h-.34375c-.247034.183508-.568708.328815-.9375.3125-.350244-.015494-.617228-.149238-.84375-.3125h-2.09375-4.78125v-12h4.78125 2.0625c.0373847-.0324359.0388739-.0574305.09375-.09375.174256-.1153303.471952-.238865.75-.25.467299-.0186792.778148.15479 1 .34375h.3125v.25l1 .96875v-2.21875h-4zm10.71875 5.3125a1.2502328 1.2502328 0 0 1 0 .1875 1.2502328 1.2502328 0 0 1 -.0625.375 1.2502328 1.2502328 0 0 1 -.25.4375 1.2502328 1.2502328 0 0 1 -.40625.3125v.3125l.03125.0625c.103598-.0594638-.070327.0316037.03125-.03125s-.036946.034925.0625-.03125-.065955.038174.03125-.03125-.063609.0413473.03125-.03125-.061159.0444413.03125-.03125-.027358.0474528.0625-.03125-.055959.0503783.03125-.03125-.053215.0532146.03125-.03125-.050378.0559588.03125-.03125-.047453.0586078.03125-.03125-.044441.0299087.03125-.0625-.041347.0636087.03125-.03125-.038174.0659552.03125-.03125-.034925.0681956.03125-.03125-.031604.0390774.03125-.0625-.028214.0723483.03125-.03125c-.014803.0189342-.028951.0226061 0-.03125.057901-.1077122-.023995.0778482.03125-.03125-.013475.0196271-.026278.0239594 0-.03125.052556-.1104187-.018586.080423.03125-.03125-.012115.0202541-.023542.0251801 0-.03125.047085-.1128602-.013056.0514797.03125-.0625-.010726.0208138-.020751.0262654 0-.03125.041501-.1150308-.007421.0847629.03125-.03125-.009311.0213048-.017909.0272127 0-.03125-.008595.0215241-.016471.0276338 0-.03125.032943-.1177677.001202.0872893.03125-.03125s-.027135.0879898 0-.03125-.024206.0886187 0-.03125-.021263.0579256 0-.0625c.005316-.0301064-.002496-.0321215 0-.03125 0 0 .03125.03125.03125.03125.002127.0008109-.004577-.0010224 0-.03125.018306-.1209104-.015339.0900725 0-.03125.030863-.2486896-.023173.1870237 0-.0625s-.015461.21887 0-.03125-.007734.187978 0-.0625 0 .2193474 0-.03125.007734.219228 0-.03125.015461.18762 0-.0625.023173.2182737 0-.03125.030863.1861896 0-.0625c-.015339-.1213225.018306.0896604 0-.03125-.004577-.0302276.002127-.0320609 0-.03125 0 0-.03125.03125-.03125.03125-.002496.0008715.005316-.0011436 0-.03125-.021263-.1204256.024206.0573687 0-.0625s.027135.0879898 0-.03125.030048.0872893 0-.03125c-.003756-.0148174-.027186.0043907-.03125 0zm-.71875 1.71875v.375a1.2502328 1.2502328 0 0 1 .375.28125 1.2502328 1.2502328 0 0 1 .25.46875 1.2502328 1.2502328 0 0 1 .0625.375 1.2502328 1.2502328 0 0 1 0 .21875c.032943-.1177677.001202.0872893.03125-.03125s-.027135.0879898 0-.03125-.024206.0886187 0-.03125-.021263.0579256 0-.0625c.005316-.0301064-.002496-.0321215 0-.03125 0 0 .03125.03125.03125.03125.002127.0008109-.004577-.0010224 0-.03125.018306-.1209104-.015339.0900725 0-.03125.030863-.2486896-.023173.1870237 0-.0625s-.015461.21887 0-.03125-.007734.187978 0-.0625 0 .2193474 0-.03125.007734.219228 0-.03125.015461.18762 0-.0625.023173.2182737 0-.03125.030863.1861896 0-.0625c-.015339-.1213225.018306.0896604 0-.03125-.004577-.0302276.002127-.0320609 0-.03125 0 0-.03125.03125-.03125.03125-.002496.0008715.005316-.0011436 0-.03125-.021263-.1204256.024206.0573687 0-.0625s.027135.0879898 0-.03125.030048.0872893 0-.03125.001693.0865177-.03125-.03125c-.016471-.0588839-.008595-.0527741 0-.03125-.017909-.0584627-.009311-.0525548 0-.03125-.038671-.1160129.010251.0837808-.03125-.03125-.020751-.0575154-.010726-.0520638 0-.03125-.044306-.1139797.015835.0503602-.03125-.0625-.023542-.0564301-.012115-.0515041 0-.03125-.049836-.111673.021306.0791687-.03125-.03125-.026278-.0552094-.013475-.0508771 0-.03125-.055245-.1090982.026651.0764622-.03125-.03125-.028951-.0538561-.014803-.0501842 0-.03125-.059464-.1035983.031604.0703274-.03125-.03125s.034925.0369456-.03125-.0625.038174.0659552-.03125-.03125.041347.0636087-.03125-.03125.044441.0611587-.03125-.03125.047453.0273578-.03125-.0625.050378.0559588-.03125-.03125.053215.0532146-.03125-.03125.055959.0503783-.03125-.03125.058608.0474528-.03125-.03125.029909.0444413-.0625-.03125.063609.0413473-.03125-.03125.065955.038174-.03125-.03125.068196.034925-.03125-.03125c-.205571-.1411773.147823.1027454-.0625-.03125-.031548-.0200993-.022798-.0250753-.03125-.03125z"/><path d="m10.75 2.90625c-.08515.00341-.147906.054156-.25.15625l-.9375.96875c-.1848431.1848432-.1998696.3626306-.0625.5l1.96875 1.96875a.25373612.25373612 0 0 1 .03125.0625.25373612.25373612 0 0 1 .03125.09375.25373612.25373612 0 0 1 -.125.25.25373612.25373612 0 0 1 -.125.03125h-4.40625c-.2369351 0-.40625.1693149-.40625.40625v1.34375c0 .2369351.1693149.40625.40625.40625h4.375a.25373612.25373612 0 0 1 .0625 0 .25373612.25373612 0 0 1 .15625.125.25373612.25373612 0 0 1 .03125.09375.25373612.25373612 0 0 1 -.0625.21875l-1.9375 1.9375c-.1296061.129606-.1151768.353573.0625.53125l.9375.9375c.177677.177674.354868.176382.5.03125l4.75-4.625c.0664-.066403.10728-.1364666.125-.21875a.25373612.25373612 0 0 1 0-.03125c.000547-.00146.02629-.010674.03125-.03125.000307-.00781-.00002-.024475 0-.03125.00002-.00678.000207-.027447 0-.03125a.25373612.25373612 0 0 1 0-.03125c-.000257.0039951-.013093-.015693-.03125-.09375-.016479-.070851-.046466-.108968-.125-.1875l-4.75-4.65625c-.08068-.080682-.168707-.1282495-.25-.125z"/></g></svg>

<?xml version="1.0" encoding="UTF-8" standalone="no"?>
<!-- Created with Inkscape (http://www.inkscape.org/) -->

<svg
   xmlns:dc="http://purl.org/dc/elements/1.1/"
   xmlns:cc="http://creativecommons.org/ns#"
   xmlns:rdf="http://www.w3.org/1999/02/22-rdf-syntax-ns#"
   xmlns:svg="http://www.w3.org/2000/svg"
   xmlns="http://www.w3.org/2000/svg"
   xmlns:xlink="http://www.w3.org/1999/xlink"
   xmlns:sodipodi="http://sodipodi.sourceforge.net/DTD/sodipodi-0.dtd"
   xmlns:inkscape="http://www.inkscape.org/namespaces/inkscape"
   version="1.1"
   width="16"
   height="16"
   id="svg7384"
   inkscape:version="0.48.3.1 r9886"
   sodipodi:docname="document-export-symbolic.svg">
  <sodipodi:namedview
     pagecolor="#ffffff"
     bordercolor="#666666"
     borderopacity="1"
     objecttolerance="10"
     gridtolerance="10"
     guidetolerance="10"
     inkscape:pageopacity="0"
     inkscape:pageshadow="2"
     inkscape:window-width="1366"
     inkscape:window-height="696"
     id="namedview8"
     showgrid="false"
     inkscape:zoom="14.75"
     inkscape:cx="-3.6155311"
     inkscape:cy="1.799227"
     inkscape:window-x="0"
     inkscape:window-y="0"
     inkscape:window-maximized="1"
     inkscape:current-layer="svg7384" />
  <title
     id="title9167">Gnome Symbolic Icon Theme</title>
  <defs
     id="defs11">
    <linearGradient
       id="linearGradient2867-449-88-871-390-598-476-591-434-148-57-177-641-289-620-227-114-444-680-744-4-1-5">
      <stop
         offset="0"
         style="stop-color:#737373;stop-opacity:1"
         id="stop5430-5-0-9" />
      <stop
         offset="0.26238"
         style="stop-color:#636363;stop-opacity:1"
         id="stop5432-2-0-0" />
      <stop
         offset="0.704952"
         style="stop-color:#4b4b4b;stop-opacity:1"
         id="stop5434-9-6-8" />
      <stop
         offset="1"
         style="stop-color:#3f3f3f;stop-opacity:1"
         id="stop5436-2-7-0" />
    </linearGradient>
    <radialGradient
       gradientTransform="matrix(0,1.5000006,1.5241254,0,40.131885,-23.077676)"
       gradientUnits="userSpaceOnUse"
       xlink:href="#linearGradient2867-449-88-871-390-598-476-591-434-148-57-177-641-289-620-227-114-444-680-744-4-1-5"
       id="radialGradient3896-0"
       fy="-19.005346"
       fx="16.202444"
       r="19.99999"
       cy="-19.005346"
       cx="16.202444" />
    <linearGradient
       id="linearGradient2867-449-88-871-390-598-476-591-434-148-57-177-641-289-620-227-114-444-680-744-4-1">
      <stop
         offset="0"
         style="stop-color:#737373;stop-opacity:1"
         id="stop5430-5-0" />
      <stop
         offset="0.26238"
         style="stop-color:#636363;stop-opacity:1"
         id="stop5432-2-0" />
      <stop
         offset="0.704952"
         style="stop-color:#4b4b4b;stop-opacity:1"
         id="stop5434-9-6" />
      <stop
         offset="1"
         style="stop-color:#3f3f3f;stop-opacity:1"
         id="stop5436-2-7" />
    </linearGradient>
    <radialGradient
       inkscape:collect="always"
       xlink:href="#linearGradient2867-449-88-871-390-598-476-591-434-148-57-177-641-289-620-227-114-444-680-744-4-1-5"
       id="radialGradient3039"
       gradientUnits="userSpaceOnUse"
       gradientTransform="matrix(0,0.99850663,1.0145658,0,30.274431,-15.340372)"
       cx="16.202444"
       cy="-19.005346"
       fx="16.202444"
       fy="-19.005346"
       r="19.99999" />
    <radialGradient
       inkscape:collect="always"
       xlink:href="#linearGradient2867-449-88-871-390-598-476-591-434-148-57-177-641-289-620-227-114-444-680-744-4-1-5"
       id="radialGradient3044"
       gradientUnits="userSpaceOnUse"
       gradientTransform="matrix(0,0.99850663,1.0145658,0,30.274431,-15.340372)"
       cx="16.202444"
       cy="-19.005346"
       fx="16.202444"
       fy="-19.005346"
       r="19.99999" />
  </defs>
  <metadata
     id="metadata90">
    <rdf:RDF>
      <cc:Work
         rdf:about="">
        <dc:format>image/svg+xml</dc:format>
        <dc:type
           rdf:resource="http://purl.org/dc/dcmitype/StillImage" />
        <dc:title>Gnome Symbolic Icon Theme</dc:title>
      </cc:Work>
    </rdf:RDF>
  </metadata>
  <path
     style="color:#bebebe;fill:#a3a3a3;fill-opacity:1;fill-rule:nonzero;stroke:none;stroke-width:1;marker:none;visibility:visible;display:inline;overflow:visible;enable-background:accumulate"
     d="M 2 1 L 2 15 L 9 15 L 13 15 L 13 12.78125 L 12 13.75 L 12 14 L 11.65625 14 C 11.409216 14.183508 11.087542 14.328815 10.71875 14.3125 C 10.368506 14.297006 10.101522 14.163262 9.875 14 L 7.78125 14 L 3 14 L 3 2 L 7.78125 2 L 9.84375 2 C 9.8811347 1.9675641 9.8826239 1.9425695 9.9375 1.90625 C 10.111756 1.7909197 10.409452 1.667385 10.6875 1.65625 C 11.154799 1.6375708 11.465648 1.81104 11.6875 2 L 12 2 L 12 2.25 L 13 3.21875 L 13 1 L 9 1 L 2 1 z M 12.71875 6.3125 A 1.2502328 1.2502328 0 0 1 12.71875 6.5 A 1.2502328 1.2502328 0 0 1 12.65625 6.875 A 1.2502328 1.2502328 0 0 1 12.40625 7.3125 A 1.2502328 1.2502328 0 0 1 12 7.625 L 12 7.9375 L 12.03125 8 C 12.134848 7.9405362 11.960923 8.0316037 12.0625 7.96875 C 12.164077 7.9058963 12.025554 8.003675 12.125 7.9375 C 12.224446 7.871325 12.059045 7.975674 12.15625 7.90625 C 12.253455 7.836826 12.092641 7.9475973 12.1875 7.875 C 12.282359 7.8024027 12.126341 7.9194413 12.21875 7.84375 C 12.311159 7.7680587 12.191392 7.8912028 12.28125 7.8125 C 12.371108 7.7337972 12.225291 7.8628783 12.3125 7.78125 C 12.399709 7.6996217 12.259285 7.8344646 12.34375 7.75 C 12.428215 7.6655354 12.293372 7.8059588 12.375 7.71875 C 12.456628 7.6315412 12.327547 7.7773578 12.40625 7.6875 C 12.484953 7.5976422 12.361809 7.7174087 12.4375 7.625 C 12.513191 7.5325913 12.396153 7.6886087 12.46875 7.59375 C 12.541347 7.4988913 12.430576 7.6597052 12.5 7.5625 C 12.569424 7.4652948 12.465075 7.6306956 12.53125 7.53125 C 12.597425 7.4318044 12.499646 7.5703274 12.5625 7.46875 C 12.625354 7.3671726 12.534286 7.5410983 12.59375 7.4375 C 12.578947 7.4564342 12.564799 7.4601061 12.59375 7.40625 C 12.651651 7.2985378 12.569755 7.4840982 12.625 7.375 C 12.611525 7.3946271 12.598722 7.3989594 12.625 7.34375 C 12.677556 7.2333313 12.606414 7.424173 12.65625 7.3125 C 12.644135 7.3327541 12.632708 7.3376801 12.65625 7.28125 C 12.703335 7.1683898 12.643194 7.3327297 12.6875 7.21875 C 12.676774 7.2395638 12.666749 7.2450154 12.6875 7.1875 C 12.729001 7.0724692 12.680079 7.2722629 12.71875 7.15625 C 12.709439 7.1775548 12.700841 7.1834627 12.71875 7.125 C 12.710155 7.1465241 12.702279 7.1526338 12.71875 7.09375 C 12.751693 6.9759823 12.719952 7.1810393 12.75 7.0625 C 12.780048 6.9439607 12.722865 7.1504898 12.75 7.03125 C 12.777135 6.9120102 12.725794 7.1198687 12.75 7 C 12.774206 6.8801313 12.728737 7.0579256 12.75 6.9375 C 12.755316 6.9073936 12.747504 6.9053785 12.75 6.90625 C 12.75 6.90625 12.78125 6.9375 12.78125 6.9375 C 12.783377 6.9383109 12.776673 6.9364776 12.78125 6.90625 C 12.799556 6.7853396 12.765911 6.9963225 12.78125 6.875 C 12.812113 6.6263104 12.758077 7.0620237 12.78125 6.8125 C 12.804423 6.5629763 12.765789 7.03137 12.78125 6.78125 C 12.796711 6.53113 12.773516 6.969228 12.78125 6.71875 C 12.788984 6.468272 12.78125 6.9380974 12.78125 6.6875 C 12.78125 6.4369026 12.788984 6.906728 12.78125 6.65625 C 12.773516 6.405772 12.796711 6.84387 12.78125 6.59375 C 12.765789 6.34363 12.804423 6.8120237 12.78125 6.5625 C 12.758077 6.3129763 12.812113 6.7486896 12.78125 6.5 C 12.765911 6.3786775 12.799556 6.5896604 12.78125 6.46875 C 12.776673 6.4385224 12.783377 6.4366891 12.78125 6.4375 C 12.78125 6.4375 12.75 6.46875 12.75 6.46875 C 12.747504 6.4696215 12.755316 6.4676064 12.75 6.4375 C 12.728737 6.3170744 12.774206 6.4948687 12.75 6.375 C 12.725794 6.2551313 12.777135 6.4629898 12.75 6.34375 C 12.722865 6.2245102 12.780048 6.4310393 12.75 6.3125 C 12.746244 6.2976826 12.722814 6.3168907 12.71875 6.3125 z M 12 8.03125 L 12 8.40625 A 1.2502328 1.2502328 0 0 1 12.375 8.6875 A 1.2502328 1.2502328 0 0 1 12.625 9.15625 A 1.2502328 1.2502328 0 0 1 12.6875 9.53125 A 1.2502328 1.2502328 0 0 1 12.6875 9.75 C 12.720443 9.6322323 12.688702 9.8372893 12.71875 9.71875 C 12.748798 9.6002107 12.691615 9.8067398 12.71875 9.6875 C 12.745885 9.5682602 12.694544 9.7761187 12.71875 9.65625 C 12.742956 9.5363813 12.697487 9.7141756 12.71875 9.59375 C 12.724066 9.5636436 12.716254 9.5616285 12.71875 9.5625 C 12.71875 9.5625 12.75 9.59375 12.75 9.59375 C 12.752127 9.5945609 12.745423 9.5927276 12.75 9.5625 C 12.768306 9.4415896 12.734661 9.6525725 12.75 9.53125 C 12.780863 9.2825604 12.726827 9.7182737 12.75 9.46875 C 12.773173 9.2192263 12.734539 9.68762 12.75 9.4375 C 12.765461 9.18738 12.742266 9.625478 12.75 9.375 C 12.757734 9.124522 12.75 9.5943474 12.75 9.34375 C 12.75 9.0931526 12.757734 9.562978 12.75 9.3125 C 12.742266 9.062022 12.765461 9.50012 12.75 9.25 C 12.734539 8.99988 12.773173 9.4682737 12.75 9.21875 C 12.726827 8.9692263 12.780863 9.4049396 12.75 9.15625 C 12.734661 9.0349275 12.768306 9.2459104 12.75 9.125 C 12.745423 9.0947724 12.752127 9.0929391 12.75 9.09375 C 12.75 9.09375 12.71875 9.125 12.71875 9.125 C 12.716254 9.1258715 12.724066 9.1238564 12.71875 9.09375 C 12.697487 8.9733244 12.742956 9.1511187 12.71875 9.03125 C 12.694544 8.9113813 12.745885 9.1192398 12.71875 9 C 12.691615 8.8807602 12.748798 9.0872893 12.71875 8.96875 C 12.688702 8.8502107 12.720443 9.0552677 12.6875 8.9375 C 12.671029 8.8786161 12.678905 8.8847259 12.6875 8.90625 C 12.669591 8.8477873 12.678189 8.8536952 12.6875 8.875 C 12.648829 8.7589871 12.697751 8.9587808 12.65625 8.84375 C 12.635499 8.7862346 12.645524 8.7916862 12.65625 8.8125 C 12.611944 8.6985203 12.672085 8.8628602 12.625 8.75 C 12.601458 8.6935699 12.612885 8.6984959 12.625 8.71875 C 12.575164 8.607077 12.646306 8.7979187 12.59375 8.6875 C 12.567472 8.6322906 12.580275 8.6366229 12.59375 8.65625 C 12.538505 8.5471518 12.620401 8.7327122 12.5625 8.625 C 12.533549 8.5711439 12.547697 8.5748158 12.5625 8.59375 C 12.503036 8.4901517 12.594104 8.6640774 12.53125 8.5625 C 12.468396 8.4609226 12.566175 8.5994456 12.5 8.5 C 12.433825 8.4005544 12.538174 8.5659552 12.46875 8.46875 C 12.399326 8.3715448 12.510097 8.5323587 12.4375 8.4375 C 12.364903 8.3426413 12.481941 8.4986587 12.40625 8.40625 C 12.330559 8.3138413 12.453703 8.4336078 12.375 8.34375 C 12.296297 8.2538922 12.425378 8.3997088 12.34375 8.3125 C 12.262122 8.2252912 12.396965 8.3657146 12.3125 8.28125 C 12.228035 8.1967854 12.368459 8.3316283 12.28125 8.25 C 12.194041 8.1683717 12.339858 8.2974528 12.25 8.21875 C 12.160142 8.1400472 12.279909 8.2631913 12.1875 8.1875 C 12.095091 8.1118087 12.251109 8.2288473 12.15625 8.15625 C 12.061391 8.0836527 12.222205 8.194424 12.125 8.125 C 12.027795 8.055576 12.193196 8.159925 12.09375 8.09375 C 11.888179 7.9525727 12.241573 8.1964954 12.03125 8.0625 C 11.999702 8.0424007 12.008452 8.0374247 12 8.03125 z "
     id="path3701-0-3-2-4-2-9-2-1" />
  <g
     transform="translate(-24.932404,-15.494844)"
     id="layer1-8" />
  <path
     style="color:#000000;fill:#a3a3a3;fill-opacity:1;fill-rule:nonzero;stroke:none;stroke-width:1;marker:none;visibility:visible;display:inline;overflow:visible;enable-background:accumulate"
     d="M 10.75,2.90625 C 10.66485,2.90966 10.602094,2.960406 10.5,3.0625 L 9.5625,4.03125 C 9.3776569,4.2160932 9.3626304,4.3938806 9.5,4.53125 L 11.46875,6.5 A 0.25373612,0.25373612 0 0 1 11.5,6.5625 a 0.25373612,0.25373612 0 0 1 0.03125,0.09375 0.25373612,0.25373612 0 0 1 -0.125,0.25 0.25373612,0.25373612 0 0 1 -0.125,0.03125 l -4.40625,0 c -0.2369351,0 -0.40625,0.1693149 -0.40625,0.40625 l 0,1.34375 c 0,0.2369351 0.1693149,0.40625 0.40625,0.40625 l 4.375,0 a 0.25373612,0.25373612 0 0 1 0.0625,0 0.25373612,0.25373612 0 0 1 0.15625,0.125 A 0.25373612,0.25373612 0 0 1 11.5,9.3125 0.25373612,0.25373612 0 0 1 11.4375,9.53125 L 9.5,11.46875 C 9.3703939,11.598356 9.3848232,11.822323 9.5625,12 L 10.5,12.9375 c 0.177677,0.177674 0.354868,0.176382 0.5,0.03125 l 4.75,-4.625 C 15.8164,8.277347 15.85728,8.2072834 15.875,8.125 a 0.25373612,0.25373612 0 0 1 0,-0.03125 c 5.47e-4,-0.00146 0.02629,-0.010674 0.03125,-0.03125 3.07e-4,-0.00781 -2e-5,-0.024475 0,-0.03125 2e-5,-0.00678 2.07e-4,-0.027447 0,-0.03125 a 0.25373612,0.25373612 0 0 1 0,-0.03125 C 15.905993,7.9727451 15.893157,7.953057 15.875,7.875 15.858521,7.804149 15.828534,7.766032 15.75,7.6875 L 11,3.03125 C 10.91932,2.950568 10.831293,2.9030005 10.75,2.90625 z"
     id="path3042"
     inkscape:connector-curvature="0" />
</svg>
